; generated by PrusaSlicer 2.7.1+win64 on 2024-01-18 at 16:58:34 UTC

; 

; external perimeters extrusion width = 0.63mm
; perimeters extrusion width = 0.66mm
; infill extrusion width = 0.66mm
; solid infill extrusion width = 0.66mm
; top infill extrusion width = 0.60mm
; first layer extrusion width = 0.63mm

M201 X500 Y500 Z100 E5000 ; sets maximum accelerations, mm/sec^2
M203 X500 Y500 Z10 E60 ; sets maximum feedrates, mm / sec
M204 S500 T1000 ; sets acceleration (S) and retract acceleration (R), mm/sec^2
M205 X8.00 Y8.00 Z0.40 E5.00 ; sets the jerk limits, mm/sec
M205 S0 T0 ; sets the minimum extruding and travel feed rate, mm/sec

; printing object mesh_smooth_skinny_170x50.STL id:0 copy 0
; stop printing object mesh_smooth_skinny_170x50.STL id:0 copy 0

;TYPE:Custom
G90 ; use absolute coordinates
M83 ; extruder relative mode
M140 S100 ; set final bed temp
M104 S250 ; set final nozzle temp
G28 ; home all axis
G1 Z50 F240
G1 X2.0 Y10 F3000
M190 S100 ; wait for bed temp to stabilize
M109 S250 ; wait for nozzle temp to stabilize
G1 Z0.28 F240
G92 E0
G1 X2.0 Y140 E10 F1500 ; prime the nozzle
G1 X2.3 Y140 F5000
G92 E0
G1 X2.3 Y10 E10 F1200 ; prime the nozzle
G92 E0
G21 ; set units to millimeters
G90 ; use absolute coordinates
M83 ; use relative distances for extrusion
; Filament gcode
M107
;LAYER_CHANGE
;Z:0.2
;HEIGHT:0.2
;BEFORE_LAYER_CHANGE
G92 E0
;0.2


G1 E-5 F3600
G1 Z.2 F9000
;AFTER_LAYER_CHANGE
;0.2
G1 X21.828 Y76.586
G1 Z.2
G1 E5 F2400
M204 S500
;TYPE:Skirt/Brim
;WIDTH:0.63
G1 F1200
G1 X22.929 Y76.413 E.05441
G1 X197.071 Y76.413 E8.50089
G1 X198.706 Y76.807 E.0821
G1 X199.608 Y77.464 E.05447
G1 X202.536 Y80.392 E.20214
G1 X203.414 Y81.828 E.08216
G1 X203.587 Y82.929 E.05441
G1 X203.587 Y137.071 E2.64299
G1 X203.193 Y138.706 E.0821
G1 X202.536 Y139.608 E.05447
G1 X199.608 Y142.536 E.20214
G1 X198.172 Y143.414 E.08216
G1 X197.071 Y143.587 E.05441
G1 X22.929 Y143.587 E8.50089
G1 X21.294 Y143.193 E.0821
G1 X20.392 Y142.536 E.05447
G1 X17.464 Y139.608 E.20214
G1 X16.586 Y138.172 E.08216
G1 X16.413 Y137.071 E.05441
G1 X16.413 Y82.929 E2.64299
G1 X16.807 Y81.294 E.0821
G1 X17.464 Y80.393 E.05443
G1 X20.392 Y77.464 E.20217
G1 X21.751 Y76.633 E.07776
G1 E-3.5 F3600
;WIPE_START
G1 F7200
G1 X21.828 Y76.586 E-.04285
G1 X22.929 Y76.413 E-.52939
G1 X24.882 Y76.413 E-.92776
;WIPE_END
G1 X23.564 Y80.776 F9000
G1 E5 F2400
G1 F1200
G1 X24.467 Y80.597 E.04494
G1 X195.598 Y80.603 E8.35391
G1 X196.338 Y80.747 E.0368
G1 X197.094 Y81.063 E.04
G1 X197.62 Y81.413 E.03084
G1 X198.479 Y82.251 E.05858
G1 X199.005 Y83.036 E.04613
G1 X199.276 Y83.739 E.03678
G1 X199.403 Y84.467 E.03607
G1 X199.403 Y135.533 E2.49283
G1 X199.221 Y136.442 E.04525
G1 X198.971 Y137.03 E.03119
G1 X198.597 Y137.607 E.03357
G1 X197.459 Y138.712 E.07743
G1 X196.436 Y139.224 E.05584
G1 X195.533 Y139.403 E.04494
G1 X193.845 Y139.403 E.0824
G1 X192.909 Y139.203 E.04672
G1 X27.065 Y139.203 E8.09582
G1 X26.128 Y139.403 E.04677
G1 X24.467 Y139.403 E.08108
G1 X23.558 Y139.221 E.04525
G1 X22.97 Y138.971 E.03119
G1 X22.393 Y138.597 E.03357
G1 X21.288 Y137.459 E.07743
G1 X20.776 Y136.436 E.05584
G1 X20.597 Y135.533 E.04494
G1 X20.597 Y84.467 E2.49283
G1 X20.779 Y83.558 E.04525
G1 X21.029 Y82.97 E.03119
G1 X21.403 Y82.393 E.03357
G1 X22.541 Y81.288 E.07743
G1 X23.484 Y80.817 E.05146
G1 X23.706 Y81.353 F9000
G1 F1200
G1 X23.762 Y81.33 E.00296
G1 X24.496 Y81.184 E.03653
G1 X195.568 Y81.19 E8.35103
G1 X196.192 Y81.316 E.03108
G1 X196.796 Y81.57 E.03199
G1 X197.232 Y81.854 E.0254
G1 X198.047 Y82.65 E.05561
G1 X198.471 Y83.282 E.03715
G1 X198.704 Y83.873 E.03101
G1 X198.816 Y84.495 E.03085
G1 X198.816 Y135.504 E2.49005
G1 X198.669 Y136.24 E.03664
G1 X198.441 Y136.775 E.02839
G1 X198.124 Y137.257 E.02816
G1 X197.129 Y138.226 E.0678
G1 X196.238 Y138.67 E.0486
G1 X195.504 Y138.816 E.03653
G1 X193.87 Y138.816 E.07977
G1 X193.013 Y138.616 E.04296
G1 X26.961 Y138.616 E8.10597
G1 X26.103 Y138.816 E.04301
G1 X24.496 Y138.816 E.07845
G1 X23.76 Y138.669 E.03664
G1 X23.225 Y138.441 E.02839
G1 X22.743 Y138.124 E.02816
G1 X21.774 Y137.129 E.0678
G1 X21.33 Y136.238 E.0486
G1 X21.184 Y135.504 E.03653
G1 X21.184 Y84.496 E2.49
G1 X21.331 Y83.76 E.03664
G1 X21.559 Y83.225 E.02839
G1 X21.876 Y82.743 E.02816
G1 X22.871 Y81.774 E.0678
G1 X23.288 Y81.527 E.02366
G1 X23.623 Y81.388 E.01771
G1 X23.887 Y81.92 F9000
G1 F1200
G1 X23.96 Y81.883 E.004
G1 X24.525 Y81.771 E.02812
G1 X195.538 Y81.777 E8.34815
G1 X196.505 Y82.08 E.04947
G1 X196.844 Y82.296 E.01962
G1 X197.615 Y83.049 E.05261
G1 X197.938 Y83.53 E.02828
G1 X198.133 Y84.013 E.02543
G1 X198.229 Y84.523 E.02533
G1 X198.229 Y135.475 E2.48727
G1 X198.117 Y136.038 E.02802
G1 X197.654 Y136.905 E.04798
G1 X196.796 Y137.741 E.05848
G1 X196.04 Y138.117 E.04122
G1 X195.475 Y138.229 E.02812
G1 X193.897 Y138.229 E.07703
G1 X193.122 Y138.029 E.03907
G1 X26.852 Y138.029 E8.11661
G1 X26.077 Y138.229 E.03907
G1 X24.525 Y138.229 E.07576
G1 X23.962 Y138.117 E.02802
G1 X23.095 Y137.654 E.04798
G1 X22.259 Y136.796 E.05848
G1 X21.883 Y136.04 E.04122
G1 X21.771 Y135.475 E.02812
G1 X21.771 Y84.525 E2.48717
G1 X21.883 Y83.962 E.02802
G1 X22.346 Y83.096 E.04794
G1 X23.204 Y82.259 E.05851
G1 X23.807 Y81.96 E.03286
G1 X24.064 Y82.483 F9000
G1 F1200
G1 X24.158 Y82.437 E.00511
G1 X24.553 Y82.358 E.01966
G1 X195.505 Y82.364 E8.34517
G1 X195.843 Y82.437 E.01688
G1 X196.459 Y82.741 E.03353
G1 X197.183 Y83.447 E.04936
G1 X197.408 Y83.783 E.01974
G1 X197.642 Y84.553 E.03929
G1 X197.642 Y135.447 E2.48443
G1 X197.563 Y135.842 E.01966
G1 X197.183 Y136.553 E.03935
G1 X196.459 Y137.259 E.04936
G1 X195.842 Y137.563 E.03358
G1 X195.447 Y137.642 E.01966
G1 X193.925 Y137.642 E.0743
G1 X193.236 Y137.442 E.03502
G1 X26.737 Y137.442 E8.12779
G1 X26.049 Y137.642 E.03498
G1 X24.553 Y137.642 E.07303
G1 X24.158 Y137.563 E.01966
G1 X23.447 Y137.183 E.03935
G1 X22.741 Y136.459 E.04936
G1 X22.437 Y135.842 E.03358
G1 X22.358 Y135.447 E.01966
G1 X22.358 Y84.553 E2.48443
G1 X22.592 Y83.783 E.03929
G1 X22.817 Y83.447 E.01974
G1 X23.541 Y82.741 E.04936
G1 X23.984 Y82.523 E.0241
G1 X24.237 Y83.048 F9000
G1 F1200
G1 X24.356 Y82.99 E.00646
G1 X195.471 Y82.951 E8.35313
G1 X196.116 Y83.218 E.03408
G1 X196.749 Y83.843 E.04342
G1 X197.055 Y84.582 E.03905
G1 X197.055 Y135.418 E2.4816
G1 X196.749 Y136.157 E.03905
G1 X196.116 Y136.782 E.04342
G1 X195.644 Y137.01 E.02559
G1 X193.956 Y137.055 E.08243
G1 X193.356 Y136.855 E.03087
G1 X26.618 Y136.855 E8.13946
G1 X26.018 Y137.055 E.03087
G1 X24.582 Y137.055 E.0701
G1 X23.843 Y136.749 E.03905
G1 X23.218 Y136.116 E.04342
G1 X22.99 Y135.644 E.02559
G1 X22.945 Y84.582 E2.49264
G1 X23.251 Y83.843 E.03905
G1 X23.884 Y83.218 E.04342
G1 X24.156 Y83.087 E.01474
G1 X24.395 Y83.616 F9000
G1 F1200
G1 X24.554 Y83.544 E.00852
G1 X195.389 Y83.532 E8.33946
G1 X195.763 Y83.687 E.01976
G1 X196.313 Y84.237 E.03797
G1 X196.468 Y84.611 E.01976
G1 X196.468 Y135.389 E2.47877
G1 X196.313 Y135.763 E.01976
G1 X195.763 Y136.313 E.03797
G1 X195.446 Y136.456 E.01698
G1 X193.985 Y136.468 E.07132
G1 X193.543 Y136.268 E.02368
G1 X26.43 Y136.268 E8.15777
G1 X25.989 Y136.468 E.02364
G1 X24.611 Y136.468 E.06727
G1 X24.237 Y136.313 E.01976
G1 X23.687 Y135.763 E.03797
G1 X23.544 Y135.446 E.01698
G1 X23.532 Y84.611 E2.48155
G1 X23.687 Y84.237 E.01976
G1 X24.237 Y83.687 E.03797
G1 X24.313 Y83.653 E.00406
G1 X24.698 Y84.119 F9000
G1 F1200
G1 X195.409 Y84.164 E8.33341
G1 X195.881 Y84.698 E.03479
G1 X195.881 Y135.302 E2.47028
G1 X195.302 Y135.881 E.03997
G1 X194.072 Y135.881 E.06004
G1 X193.809 Y135.681 E.01613
G1 X26.165 Y135.681 E8.18369
G1 X25.902 Y135.881 E.01613
G1 X24.698 Y135.881 E.05877
G1 X24.119 Y135.302 E.03997
G1 X24.119 Y84.698 E2.47028
G1 X24.635 Y84.183 E.03559
G1 X24.878 Y84.706 F9000
G1 F1200
G1 X195.122 Y84.706 E8.31061
G1 X195.294 Y84.878 E.01187
G1 X195.294 Y135.122 E2.4527
G1 X195.122 Y135.294 E.01187
G1 X194.252 Y135.294 E.04247
G1 X194.052 Y135.094 E.01381
G1 X25.922 Y135.094 E8.20741
G1 X25.722 Y135.294 E.01381
G1 X24.878 Y135.294 E.0412
G1 X24.706 Y135.122 E.01187
G1 X24.706 Y84.878 E2.4527
G1 X24.815 Y84.77 E.00749
; printing object mesh_smooth_skinny_170x50.STL id:0 copy 0
G1 X25.37 Y86.5 F9000
;TYPE:External perimeter
;WIDTH:0.73927
G1 F1200
G1 X25.439 Y86.5 E.004
;WIDTH:0.692847
G1 X25.509 Y86.5 E.00378
;WIDTH:0.646424
G1 X25.579 Y86.5 E.00351
;WIDTH:0.6
G1 X194.395 Y86.5 E7.81979
;WIDTH:0.639829
G1 X194.451 Y86.5 E.00278
;WIDTH:0.679657
G1 X194.508 Y86.5 E.00302
;WIDTH:0.719486
G1 X194.564 Y86.5 E.00315
;WIDTH:0.759314
G1 X194.62 Y86.5 E.00334
G1 X194.687 Y85.579 F9000
;WIDTH:0.626328
G1 F1200
G1 X194.687 Y86.221 E.03114
;WIDTH:0.670657
G1 X194.665 Y86.314 E.00499
;WIDTH:0.714986
G1 X194.643 Y86.407 E.00534
;WIDTH:0.759314
G1 X194.62 Y86.5 E.00571
G1 X194.643 Y86.593 E.00571
;WIDTH:0.714986
G1 X194.665 Y86.686 E.00534
;WIDTH:0.670657
G1 X194.687 Y86.779 E.00499
;WIDTH:0.626328
G1 X194.687 Y87.421 E.03114
;WIDTH:0.670657
G1 X194.665 Y87.514 E.00499
;WIDTH:0.714986
G1 X194.643 Y87.607 E.00534
;WIDTH:0.759314
G1 X194.62 Y87.7 E.00571
G1 X194.643 Y87.793 E.00571
;WIDTH:0.714986
G1 X194.665 Y87.886 E.00534
;WIDTH:0.670657
G1 X194.687 Y87.979 E.00499
;WIDTH:0.626328
G1 X194.687 Y88.621 E.03114
;WIDTH:0.670656
G1 X194.665 Y88.714 E.00499
;WIDTH:0.714984
G1 X194.643 Y88.807 E.00534
;WIDTH:0.759312
G1 X194.62 Y88.9 E.00571
G1 X194.643 Y88.993 E.00571
;WIDTH:0.714984
G1 X194.665 Y89.086 E.00534
;WIDTH:0.670656
G1 X194.687 Y89.179 E.00499
;WIDTH:0.626328
G1 X194.687 Y89.821 E.03114
;WIDTH:0.670656
G1 X194.665 Y89.914 E.00499
;WIDTH:0.714983
G1 X194.643 Y90.007 E.00534
;WIDTH:0.75931
G1 X194.62 Y90.1 E.00571
G1 X194.643 Y90.193 E.00571
;WIDTH:0.714983
G1 X194.665 Y90.286 E.00534
;WIDTH:0.670656
G1 X194.687 Y90.379 E.00499
;WIDTH:0.626328
G1 X194.687 Y91.021 E.03114
;WIDTH:0.670656
G1 X194.665 Y91.114 E.00499
;WIDTH:0.714983
G1 X194.643 Y91.207 E.00534
;WIDTH:0.75931
G1 X194.62 Y91.3 E.00571
G1 X194.643 Y91.393 E.00571
;WIDTH:0.714983
G1 X194.665 Y91.486 E.00534
;WIDTH:0.670656
G1 X194.687 Y91.579 E.00499
;WIDTH:0.626328
G1 X194.687 Y92.221 E.03114
;WIDTH:0.670658
G1 X194.665 Y92.314 E.00499
;WIDTH:0.714987
G1 X194.643 Y92.407 E.00534
;WIDTH:0.759316
G1 X194.62 Y92.5 E.00571
G1 X194.643 Y92.593 E.00571
;WIDTH:0.714987
G1 X194.665 Y92.686 E.00534
;WIDTH:0.670658
G1 X194.687 Y92.779 E.00499
;WIDTH:0.626328
G1 X194.687 Y93.421 E.03114
;WIDTH:0.670658
G1 X194.665 Y93.514 E.00499
;WIDTH:0.714987
G1 X194.643 Y93.607 E.00534
;WIDTH:0.759316
G1 X194.62 Y93.7 E.00571
G1 X194.643 Y93.793 E.00571
;WIDTH:0.714987
G1 X194.665 Y93.886 E.00534
;WIDTH:0.670658
G1 X194.687 Y93.979 E.00499
;WIDTH:0.626328
G1 X194.687 Y94.621 E.03114
;WIDTH:0.670656
G1 X194.665 Y94.714 E.00499
;WIDTH:0.714984
G1 X194.643 Y94.807 E.00534
;WIDTH:0.759312
G1 X194.62 Y94.9 E.00571
G1 X194.643 Y94.993 E.00571
;WIDTH:0.714984
G1 X194.665 Y95.086 E.00534
;WIDTH:0.670656
G1 X194.687 Y95.179 E.00499
;WIDTH:0.626328
G1 X194.687 Y95.821 E.03114
;WIDTH:0.670658
G1 X194.665 Y95.914 E.00499
;WIDTH:0.714987
G1 X194.643 Y96.007 E.00534
;WIDTH:0.759316
G1 X194.62 Y96.1 E.00571
G1 X194.643 Y96.193 E.00571
;WIDTH:0.714987
G1 X194.665 Y96.286 E.00534
;WIDTH:0.670658
G1 X194.687 Y96.379 E.00499
;WIDTH:0.626328
G1 X194.687 Y97.021 E.03114
;WIDTH:0.670658
G1 X194.665 Y97.114 E.00499
;WIDTH:0.714987
G1 X194.643 Y97.207 E.00534
;WIDTH:0.759316
G1 X194.62 Y97.3 E.00571
G1 X194.643 Y97.393 E.00571
;WIDTH:0.714987
G1 X194.665 Y97.486 E.00534
;WIDTH:0.670658
G1 X194.687 Y97.579 E.00499
;WIDTH:0.626328
G1 X194.687 Y98.221 E.03114
;WIDTH:0.670656
G1 X194.665 Y98.314 E.00499
;WIDTH:0.714984
G1 X194.643 Y98.407 E.00534
;WIDTH:0.759312
G1 X194.62 Y98.5 E.00571
G1 X194.643 Y98.593 E.00571
;WIDTH:0.714984
G1 X194.665 Y98.686 E.00534
;WIDTH:0.670656
G1 X194.687 Y98.779 E.00499
;WIDTH:0.626328
G1 X194.687 Y99.421 E.03114
;WIDTH:0.670655
G1 X194.665 Y99.514 E.00499
;WIDTH:0.714982
G1 X194.643 Y99.607 E.00534
;WIDTH:0.759308
G1 X194.62 Y99.7 E.00571
G1 X194.643 Y99.793 E.00571
;WIDTH:0.714982
G1 X194.665 Y99.886 E.00534
;WIDTH:0.670655
G1 X194.687 Y99.979 E.00499
;WIDTH:0.626328
G1 X194.687 Y100.621 E.03114
;WIDTH:0.670658
G1 X194.665 Y100.714 E.00499
;WIDTH:0.714987
G1 X194.643 Y100.807 E.00534
;WIDTH:0.759316
G1 X194.62 Y100.9 E.00571
G1 X194.643 Y100.993 E.00571
;WIDTH:0.714987
G1 X194.665 Y101.086 E.00534
;WIDTH:0.670658
G1 X194.687 Y101.179 E.00499
;WIDTH:0.626328
G1 X194.687 Y101.821 E.03114
;WIDTH:0.670656
G1 X194.665 Y101.914 E.00499
;WIDTH:0.714984
G1 X194.643 Y102.007 E.00534
;WIDTH:0.759312
G1 X194.62 Y102.1 E.00571
G1 X194.643 Y102.193 E.00571
;WIDTH:0.714984
G1 X194.665 Y102.286 E.00534
;WIDTH:0.670656
G1 X194.687 Y102.379 E.00499
;WIDTH:0.626328
G1 X194.687 Y103.021 E.03114
;WIDTH:0.670655
G1 X194.665 Y103.114 E.00499
;WIDTH:0.714982
G1 X194.643 Y103.207 E.00534
;WIDTH:0.759308
G1 X194.62 Y103.3 E.00571
G1 X194.643 Y103.393 E.00571
;WIDTH:0.714982
G1 X194.665 Y103.486 E.00534
;WIDTH:0.670655
G1 X194.687 Y103.579 E.00499
;WIDTH:0.626328
G1 X194.687 Y104.221 E.03114
;WIDTH:0.670658
G1 X194.665 Y104.314 E.00499
;WIDTH:0.714987
G1 X194.643 Y104.407 E.00534
;WIDTH:0.759316
G1 X194.62 Y104.5 E.00571
G1 X194.643 Y104.593 E.00571
;WIDTH:0.714987
G1 X194.665 Y104.686 E.00534
;WIDTH:0.670658
G1 X194.687 Y104.779 E.00499
;WIDTH:0.626328
G1 X194.687 Y105.421 E.03114
;WIDTH:0.670655
G1 X194.665 Y105.514 E.00499
;WIDTH:0.714982
G1 X194.643 Y105.607 E.00534
;WIDTH:0.759308
G1 X194.62 Y105.7 E.00571
G1 X194.643 Y105.793 E.00571
;WIDTH:0.714982
G1 X194.665 Y105.886 E.00534
;WIDTH:0.670655
G1 X194.687 Y105.979 E.00499
;WIDTH:0.626328
G1 X194.687 Y106.621 E.03114
;WIDTH:0.670655
G1 X194.665 Y106.714 E.00499
;WIDTH:0.714982
G1 X194.643 Y106.807 E.00534
;WIDTH:0.759308
G1 X194.62 Y106.9 E.00571
G1 X194.643 Y106.993 E.00571
;WIDTH:0.714982
G1 X194.665 Y107.086 E.00534
;WIDTH:0.670655
G1 X194.687 Y107.179 E.00499
;WIDTH:0.626328
G1 X194.687 Y107.821 E.03114
;WIDTH:0.67066
G1 X194.665 Y107.914 E.00499
;WIDTH:0.714992
G1 X194.643 Y108.007 E.00534
;WIDTH:0.759324
G1 X194.62 Y108.1 E.00571
G1 X194.643 Y108.193 E.00571
;WIDTH:0.714992
G1 X194.665 Y108.286 E.00534
;WIDTH:0.67066
G1 X194.687 Y108.379 E.00499
;WIDTH:0.626328
G1 X194.687 Y109.021 E.03114
;WIDTH:0.670655
G1 X194.665 Y109.114 E.00499
;WIDTH:0.714982
G1 X194.643 Y109.207 E.00534
;WIDTH:0.759308
G1 X194.62 Y109.3 E.00571
G1 X194.643 Y109.393 E.00571
;WIDTH:0.714982
G1 X194.665 Y109.486 E.00534
;WIDTH:0.670655
G1 X194.687 Y109.579 E.00499
;WIDTH:0.626328
G1 X194.687 Y110.221 E.03114
;WIDTH:0.670658
G1 X194.665 Y110.314 E.00499
;WIDTH:0.714987
G1 X194.643 Y110.407 E.00534
;WIDTH:0.759316
G1 X194.62 Y110.5 E.00571
G1 X194.643 Y110.593 E.00571
;WIDTH:0.714987
G1 X194.665 Y110.686 E.00534
;WIDTH:0.670658
G1 X194.687 Y110.779 E.00499
;WIDTH:0.626328
G1 X194.687 Y111.421 E.03114
;WIDTH:0.670658
G1 X194.665 Y111.514 E.00499
;WIDTH:0.714987
G1 X194.643 Y111.607 E.00534
;WIDTH:0.759316
G1 X194.62 Y111.7 E.00571
G1 X194.643 Y111.793 E.00571
;WIDTH:0.714987
G1 X194.665 Y111.886 E.00534
;WIDTH:0.670658
G1 X194.687 Y111.979 E.00499
;WIDTH:0.626328
G1 X194.687 Y112.621 E.03114
;WIDTH:0.670655
G1 X194.665 Y112.714 E.00499
;WIDTH:0.714982
G1 X194.643 Y112.807 E.00534
;WIDTH:0.759308
G1 X194.62 Y112.9 E.00571
G1 X194.643 Y112.993 E.00571
;WIDTH:0.714982
G1 X194.665 Y113.086 E.00534
;WIDTH:0.670655
G1 X194.687 Y113.179 E.00499
;WIDTH:0.626328
G1 X194.687 Y113.821 E.03114
;WIDTH:0.670658
G1 X194.665 Y113.914 E.00499
;WIDTH:0.714987
G1 X194.643 Y114.007 E.00534
;WIDTH:0.759316
G1 X194.62 Y114.1 E.00571
G1 X194.643 Y114.193 E.00571
;WIDTH:0.714987
G1 X194.665 Y114.286 E.00534
;WIDTH:0.670658
G1 X194.687 Y114.379 E.00499
;WIDTH:0.626328
G1 X194.687 Y115.021 E.03114
;WIDTH:0.670655
G1 X194.665 Y115.114 E.00499
;WIDTH:0.714982
G1 X194.643 Y115.207 E.00534
;WIDTH:0.759308
G1 X194.62 Y115.3 E.00571
G1 X194.643 Y115.393 E.00571
;WIDTH:0.714982
G1 X194.665 Y115.486 E.00534
;WIDTH:0.670655
G1 X194.687 Y115.579 E.00499
;WIDTH:0.626328
G1 X194.687 Y116.221 E.03114
;WIDTH:0.670658
G1 X194.665 Y116.314 E.00499
;WIDTH:0.714987
G1 X194.643 Y116.407 E.00534
;WIDTH:0.759316
G1 X194.62 Y116.5 E.00571
G1 X194.643 Y116.593 E.00571
