; generated by PrusaSlicer 2.7.1+win64 on 2024-01-17 at 13:21:18 UTC

; 

; external perimeters extrusion width = 0.63mm
; perimeters extrusion width = 0.66mm
; infill extrusion width = 0.66mm
; solid infill extrusion width = 0.66mm
; top infill extrusion width = 0.60mm
; first layer extrusion width = 0.63mm

M201 X500 Y500 Z100 E5000 ; sets maximum accelerations, mm/sec^2
M203 X500 Y500 Z10 E60 ; sets maximum feedrates, mm / sec
M204 S500 T1000 ; sets acceleration (S) and retract acceleration (R), mm/sec^2
M205 X8.00 Y8.00 Z0.40 E5.00 ; sets the jerk limits, mm/sec
M205 S0 T0 ; sets the minimum extruding and travel feed rate, mm/sec

; printing object mesh_smooth_skinny_170x50.STL id:0 copy 0
; stop printing object mesh_smooth_skinny_170x50.STL id:0 copy 0
; printing object mesh_smooth_skinny_170x50.STL id:0 copy 1
; stop printing object mesh_smooth_skinny_170x50.STL id:0 copy 1
; printing object mesh_smooth_skinny_170x50.STL id:0 copy 2
; stop printing object mesh_smooth_skinny_170x50.STL id:0 copy 2

;TYPE:Custom
G90 ; use absolute coordinates
M83 ; extruder relative mode
M140 S100 ; set final bed temp
M104 S250 ; set final nozzle temp
G28 ; home all axis
G1 Z50 F240
G1 X2.0 Y10 F3000
M190 S100 ; wait for bed temp to stabilize
M109 S250 ; wait for nozzle temp to stabilize
G1 Z0.28 F240
G92 E0
G1 X2.0 Y140 E10 F1500 ; prime the nozzle
G1 X2.3 Y140 F5000
G92 E0
G1 X2.3 Y10 E10 F1200 ; prime the nozzle
G92 E0
G21 ; set units to millimeters
G90 ; use absolute coordinates
M83 ; use relative distances for extrusion
; Filament gcode
M107
;LAYER_CHANGE
;Z:0.2
;HEIGHT:0.2
;BEFORE_LAYER_CHANGE
G92 E0
;0.2


G1 E-5 F3600
G1 Z.2 F9000
;AFTER_LAYER_CHANGE
;0.2
; printing object mesh_smooth_skinny_170x50.STL id:0 copy 0
G1 X25.456 Y190.433
G1 Z.2
G1 E5 F2400
M204 S500
;TYPE:External perimeter
;WIDTH:0.6
G1 F1200
G1 X25.456 Y141.033 E2.28828
G1 E-3.5 F3600
;WIPE_START
G1 F7200
G1 X25.456 Y144.191 E-1.5
;WIPE_END
G1 X26.656 Y190.433 F9000
G1 E5 F2400
;WIDTH:0.599992
G1 F1200
G1 X26.656 Y141.033 E2.28824
G1 E-3.5 F3600
;WIPE_START
G1 F7200
G1 X26.656 Y144.191 E-1.5
;WIPE_END
G1 X27.856 Y190.433 F9000
G1 E5 F2400
;WIDTH:0.6
G1 F1200
G1 X27.856 Y141.033 E2.28828
G1 E-3.5 F3600
;WIPE_START
G1 F7200
G1 X27.856 Y144.191 E-1.5
;WIPE_END
G1 X29.056 Y190.433 F9000
G1 E5 F2400
G1 F1200
G1 X29.056 Y141.033 E2.28828
G1 E-3.5 F3600
;WIPE_START
G1 F7200
G1 X29.056 Y144.191 E-1.5
;WIPE_END
G1 X30.256 Y190.433 F9000
G1 E5 F2400
G1 F1200
G1 X30.256 Y141.033 E2.28828
G1 E-3.5 F3600
;WIPE_START
G1 F7200
G1 X30.256 Y144.191 E-1.5
;WIPE_END
G1 X31.456 Y190.433 F9000
G1 E5 F2400
G1 F1200
G1 X31.456 Y141.033 E2.28828
G1 E-3.5 F3600
;WIPE_START
G1 F7200
G1 X31.456 Y144.191 E-1.5
;WIPE_END
G1 X32.656 Y190.433 F9000
G1 E5 F2400
;WIDTH:0.599992
G1 F1200
G1 X32.656 Y141.033 E2.28824
G1 E-3.5 F3600
;WIPE_START
G1 F7200
G1 X32.656 Y144.191 E-1.5
;WIPE_END
G1 X33.856 Y190.433 F9000
G1 E5 F2400
;WIDTH:0.600008
G1 F1200
G1 X33.856 Y141.033 E2.28831
G1 E-3.5 F3600
;WIPE_START
G1 F7200
G1 X33.856 Y144.191 E-1.5
;WIPE_END
G1 X35.056 Y190.433 F9000
G1 E5 F2400
;WIDTH:0.6
G1 F1200
G1 X35.056 Y141.033 E2.28828
G1 E-3.5 F3600
;WIPE_START
G1 F7200
G1 X35.056 Y144.191 E-1.5
;WIPE_END
G1 X36.256 Y190.433 F9000
G1 E5 F2400
;WIDTH:0.600008
G1 F1200
G1 X36.256 Y141.033 E2.28831
G1 E-3.5 F3600
;WIPE_START
G1 F7200
G1 X36.256 Y144.191 E-1.5
;WIPE_END
G1 X37.456 Y190.433 F9000
G1 E5 F2400
;WIDTH:0.6
G1 F1200
G1 X37.456 Y141.033 E2.28828
G1 E-3.5 F3600
;WIPE_START
G1 F7200
G1 X37.456 Y144.191 E-1.5
;WIPE_END
G1 X38.656 Y190.433 F9000
G1 E5 F2400
G1 F1200
G1 X38.656 Y141.033 E2.28828
G1 E-3.5 F3600
;WIPE_START
G1 F7200
G1 X38.656 Y144.191 E-1.5
;WIPE_END
G1 X39.856 Y190.433 F9000
G1 E5 F2400
;WIDTH:0.600008
G1 F1200
G1 X39.856 Y141.033 E2.28831
G1 E-3.5 F3600
;WIPE_START
G1 F7200
G1 X39.856 Y144.191 E-1.5
;WIPE_END
G1 X41.056 Y190.433 F9000
G1 E5 F2400
;WIDTH:0.6
G1 F1200
G1 X41.056 Y141.033 E2.28828
G1 E-3.5 F3600
;WIPE_START
G1 F7200
G1 X41.056 Y144.191 E-1.5
;WIPE_END
G1 X42.256 Y190.433 F9000
G1 E5 F2400
G1 F1200
G1 X42.256 Y141.033 E2.28828
G1 E-3.5 F3600
;WIPE_START
G1 F7200
G1 X42.256 Y144.191 E-1.5
;WIPE_END
G1 X43.456 Y190.433 F9000
G1 E5 F2400
G1 F1200
G1 X43.456 Y141.033 E2.28828
G1 E-3.5 F3600
;WIPE_START
G1 F7200
G1 X43.456 Y144.191 E-1.5
;WIPE_END
G1 X44.656 Y190.433 F9000
G1 E5 F2400
;WIDTH:0.600008
G1 F1200
G1 X44.656 Y141.033 E2.28831
G1 E-3.5 F3600
;WIPE_START
G1 F7200
G1 X44.656 Y144.191 E-1.5
;WIPE_END
G1 X45.856 Y190.433 F9000
G1 E5 F2400
;WIDTH:0.6
G1 F1200
G1 X45.856 Y141.033 E2.28828
G1 E-3.5 F3600
;WIPE_START
G1 F7200
G1 X45.856 Y144.191 E-1.5
;WIPE_END
G1 X47.056 Y190.433 F9000
G1 E5 F2400
;WIDTH:0.599996
G1 F1200
G1 X47.056 Y141.033 E2.28826
G1 E-3.5 F3600
;WIPE_START
G1 F7200
G1 X47.056 Y144.191 E-1.5
;WIPE_END
G1 X48.256 Y190.433 F9000
G1 E5 F2400
G1 F1200
G1 X48.256 Y141.033 E2.28826
G1 E-3.5 F3600
;WIPE_START
G1 F7200
G1 X48.256 Y144.191 E-1.5
;WIPE_END
G1 X49.456 Y190.433 F9000
G1 E5 F2400
;WIDTH:0.600004
G1 F1200
G1 X49.456 Y141.033 E2.28829
G1 E-3.5 F3600
;WIPE_START
G1 F7200
G1 X49.456 Y144.191 E-1.5
;WIPE_END
G1 X50.656 Y190.433 F9000
G1 E5 F2400
G1 F1200
G1 X50.656 Y141.033 E2.28829
G1 E-3.5 F3600
;WIPE_START
G1 F7200
G1 X50.656 Y144.191 E-1.5
;WIPE_END
G1 X51.856 Y190.433 F9000
G1 E5 F2400
G1 F1200
G1 X51.856 Y141.033 E2.28829
G1 E-3.5 F3600
;WIPE_START
G1 F7200
G1 X51.856 Y144.191 E-1.5
;WIPE_END
G1 X53.056 Y190.433 F9000
G1 E5 F2400
;WIDTH:0.599996
G1 F1200
G1 X53.056 Y141.033 E2.28826
G1 E-3.5 F3600
;WIPE_START
G1 F7200
G1 X53.056 Y144.191 E-1.5
;WIPE_END
G1 X54.256 Y190.433 F9000
G1 E5 F2400
;WIDTH:0.6
G1 F1200
G1 X54.256 Y141.033 E2.28828
G1 E-3.5 F3600
;WIPE_START
G1 F7200
G1 X54.256 Y144.191 E-1.5
;WIPE_END
G1 X55.456 Y190.433 F9000
G1 E5 F2400
G1 F1200
G1 X55.456 Y141.033 E2.28828
G1 E-3.5 F3600
;WIPE_START
G1 F7200
G1 X55.456 Y144.191 E-1.5
;WIPE_END
G1 X56.656 Y190.433 F9000
G1 E5 F2400
G1 F1200
G1 X56.656 Y141.033 E2.28828
G1 E-3.5 F3600
;WIPE_START
G1 F7200
G1 X56.656 Y144.191 E-1.5
;WIPE_END
G1 X57.856 Y190.433 F9000
G1 E5 F2400
G1 F1200
G1 X57.856 Y141.033 E2.28828
G1 E-3.5 F3600
;WIPE_START
G1 F7200
G1 X57.856 Y144.191 E-1.5
;WIPE_END
G1 X59.056 Y190.433 F9000
G1 E5 F2400
;WIDTH:0.599996
G1 F1200
G1 X59.056 Y141.033 E2.28826
G1 E-3.5 F3600
;WIPE_START
G1 F7200
G1 X59.056 Y144.191 E-1.5
;WIPE_END
G1 X60.256 Y190.433 F9000
G1 E5 F2400
G1 F1200
G1 X60.256 Y141.033 E2.28826
G1 E-3.5 F3600
;WIPE_START
G1 F7200
G1 X60.256 Y144.191 E-1.5
;WIPE_END
G1 X61.456 Y190.433 F9000
G1 E5 F2400
;WIDTH:0.6
G1 F1200
G1 X61.456 Y141.033 E2.28828
G1 E-3.5 F3600
;WIPE_START
G1 F7200
G1 X61.456 Y144.191 E-1.5
;WIPE_END
G1 X62.656 Y190.433 F9000
G1 E5 F2400
;WIDTH:0.600004
G1 F1200
G1 X62.656 Y141.033 E2.28829
G1 E-3.5 F3600
;WIPE_START
G1 F7200
G1 X62.656 Y144.191 E-1.5
;WIPE_END
G1 X63.856 Y190.433 F9000
G1 E5 F2400
G1 F1200
G1 X63.856 Y141.033 E2.28829
G1 E-3.5 F3600
;WIPE_START
G1 F7200
G1 X63.856 Y144.191 E-1.5
;WIPE_END
G1 X65.056 Y190.433 F9000
G1 E5 F2400
;WIDTH:0.599996
G1 F1200
G1 X65.056 Y141.033 E2.28826
G1 E-3.5 F3600
;WIPE_START
G1 F7200
G1 X65.056 Y144.191 E-1.5
;WIPE_END
G1 X66.256 Y190.433 F9000
G1 E5 F2400
G1 F1200
G1 X66.256 Y141.033 E2.28826
G1 E-3.5 F3600
;WIPE_START
G1 F7200
G1 X66.256 Y144.191 E-1.5
;WIPE_END
G1 X67.456 Y190.433 F9000
G1 E5 F2400
;WIDTH:0.6
G1 F1200
G1 X67.456 Y141.033 E2.28828
G1 E-3.5 F3600
;WIPE_START
G1 F7200
G1 X67.456 Y144.191 E-1.5
;WIPE_END
G1 X68.656 Y190.433 F9000
G1 E5 F2400
;WIDTH:0.600004
G1 F1200
G1 X68.656 Y141.033 E2.28829
G1 E-3.5 F3600
;WIPE_START
G1 F7200
G1 X68.656 Y144.191 E-1.5
;WIPE_END
G1 X69.856 Y190.433 F9000
G1 E5 F2400
;WIDTH:0.6
G1 F1200
G1 X69.856 Y141.033 E2.28828
G1 E-3.5 F3600
;WIPE_START
G1 F7200
G1 X69.856 Y144.191 E-1.5
;WIPE_END
G1 X71.056 Y190.433 F9000
G1 E5 F2400
;WIDTH:0.599996
G1 F1200
G1 X71.056 Y141.033 E2.28826
G1 E-3.5 F3600
;WIPE_START
G1 F7200
G1 X71.056 Y144.191 E-1.5
;WIPE_END
G1 X72.256 Y190.433 F9000
G1 E5 F2400
G1 F1200
G1 X72.256 Y141.033 E2.28826
G1 E-3.5 F3600
;WIPE_START
G1 F7200
G1 X72.256 Y144.191 E-1.5
;WIPE_END
G1 X73.456 Y190.433 F9000
G1 E5 F2400
;WIDTH:0.6
G1 F1200
G1 X73.456 Y141.033 E2.28828
G1 E-3.5 F3600
;WIPE_START
G1 F7200
G1 X73.456 Y144.191 E-1.5
;WIPE_END
G1 X74.656 Y190.433 F9000
G1 E5 F2400
;WIDTH:0.600004
G1 F1200
G1 X74.656 Y141.033 E2.28829
G1 E-3.5 F3600
;WIPE_START
G1 F7200
G1 X74.656 Y144.191 E-1.5
;WIPE_END
G1 X75.856 Y190.433 F9000
G1 E5 F2400
G1 F1200
G1 X75.856 Y141.033 E2.28829
G1 E-3.5 F3600
;WIPE_START
G1 F7200
G1 X75.856 Y144.191 E-1.5
;WIPE_END
G1 X77.056 Y190.433 F9000
G1 E5 F2400
;WIDTH:0.599998
G1 F1200
G1 X77.056 Y141.033 E2.28827
G1 E-3.5 F3600
;WIPE_START
G1 F7200
G1 X77.056 Y144.191 E-1.5
;WIPE_END
G1 X78.256 Y190.433 F9000
G1 E5 F2400
G1 F1200
G1 X78.256 Y141.033 E2.28827
G1 E-3.5 F3600
;WIPE_START
G1 F7200
G1 X78.256 Y144.191 E-1.5
;WIPE_END
G1 X79.456 Y190.433 F9000
G1 E5 F2400
G1 F1200
G1 X79.456 Y141.033 E2.28827
G1 E-3.5 F3600
;WIPE_START
G1 F7200
G1 X79.456 Y144.191 E-1.5
;WIPE_END
G1 X80.656 Y190.433 F9000
G1 E5 F2400
;WIDTH:0.600004
G1 F1200
G1 X80.656 Y141.033 E2.28829
G1 E-3.5 F3600
;WIPE_START
G1 F7200
G1 X80.656 Y144.191 E-1.5
;WIPE_END
G1 X81.856 Y190.433 F9000
G1 E5 F2400
;WIDTH:0.600002
G1 F1200
G1 X81.856 Y141.033 E2.28828
G1 E-3.5 F3600
;WIPE_START
G1 F7200
G1 X81.856 Y144.191 E-1.5
;WIPE_END
G1 X83.056 Y190.433 F9000
G1 E5 F2400
;WIDTH:0.599998
G1 F1200
G1 X83.056 Y141.033 E2.28827
G1 E-3.5 F3600
;WIPE_START
G1 F7200
G1 X83.056 Y144.191 E-1.5
;WIPE_END
G1 X84.256 Y190.433 F9000
G1 E5 F2400
G1 F1200
G1 X84.256 Y141.033 E2.28827
G1 E-3.5 F3600
;WIPE_START
G1 F7200
G1 X84.256 Y144.191 E-1.5
;WIPE_END
G1 X85.456 Y190.433 F9000
G1 E5 F2400
G1 F1200
G1 X85.456 Y141.033 E2.28827
G1 E-3.5 F3600
;WIPE_START
G1 F7200
G1 X85.456 Y144.191 E-1.5
;WIPE_END
G1 X86.656 Y190.433 F9000
G1 E5 F2400
;WIDTH:0.600004
G1 F1200
G1 X86.656 Y141.033 E2.28829
G1 E-3.5 F3600
;WIPE_START
G1 F7200
G1 X86.656 Y144.191 E-1.5
;WIPE_END
G1 X87.856 Y190.433 F9000
G1 E5 F2400
;WIDTH:0.600002
G1 F1200
G1 X87.856 Y141.033 E2.28828
G1 E-3.5 F3600
;WIPE_START
G1 F7200
G1 X87.856 Y144.191 E-1.5
;WIPE_END
G1 X89.056 Y190.433 F9000
G1 E5 F2400
;WIDTH:0.599998
G1 F1200
G1 X89.056 Y141.033 E2.28827
G1 E-3.5 F3600
;WIPE_START
G1 F7200
G1 X89.056 Y144.191 E-1.5
;WIPE_END
G1 X90.256 Y190.433 F9000
G1 E5 F2400
;WIDTH:0.600006
G1 F1200
G1 X90.256 Y141.033 E2.2883
G1 E-3.5 F3600
;WIPE_START
G1 F7200
G1 X90.256 Y144.191 E-1.5
;WIPE_END
G1 X91.456 Y190.433 F9000
G1 E5 F2400
;WIDTH:0.599998
G1 F1200
G1 X91.456 Y141.033 E2.28827
G1 E-3.5 F3600
;WIPE_START
G1 F7200
G1 X91.456 Y144.191 E-1.5
;WIPE_END
G1 X92.656 Y190.433 F9000
G1 E5 F2400
;WIDTH:0.6
G1 F1200
G1 X92.656 Y141.033 E2.28828
G1 E-3.5 F3600
;WIPE_START
G1 F7200
G1 X92.656 Y144.191 E-1.5
;WIPE_END
G1 X93.856 Y190.433 F9000
G1 E5 F2400
;WIDTH:0.599998
G1 F1200
G1 X93.856 Y141.033 E2.28827
G1 E-3.5 F3600
;WIPE_START
G1 F7200
G1 X93.856 Y144.191 E-1.5
;WIPE_END
G1 X95.056 Y190.433 F9000
G1 E5 F2400
;WIDTH:0.6
G1 F1200
G1 X95.056 Y141.033 E2.28828
G1 E-3.5 F3600
;WIPE_START
G1 F7200
G1 X95.056 Y144.191 E-1.5
;WIPE_END
G1 X96.256 Y190.433 F9000
G1 E5 F2400
;WIDTH:0.600008
G1 F1200
G1 X96.256 Y141.033 E2.28831
G1 E-3.5 F3600
;WIPE_START
G1 F7200
G1 X96.256 Y144.191 E-1.5
;WIPE_END
G1 X97.456 Y190.433 F9000
G1 E5 F2400
;WIDTH:0.599998
G1 F1200
G1 X97.456 Y141.033 E2.28827
G1 E-3.5 F3600
;WIPE_START
G1 F7200
G1 X97.456 Y144.191 E-1.5
;WIPE_END
G1 X98.656 Y190.433 F9000
G1 E5 F2400
G1 F1200
G1 X98.656 Y141.033 E2.28827
G1 E-3.5 F3600
;WIPE_START
G1 F7200
G1 X98.656 Y144.191 E-1.5
;WIPE_END
G1 X99.856 Y190.433 F9000
G1 E5 F2400
G1 F1200
G1 X99.856 Y141.033 E2.28827
G1 E-3.5 F3600
;WIPE_START
G1 F7200
G1 X99.856 Y144.191 E-1.5
;WIPE_END
G1 X101.056 Y190.433 F9000
G1 E5 F2400
G1 F1200
G1 X101.056 Y141.033 E2.28827
G1 E-3.5 F3600
;WIPE_START
G1 F7200
G1 X101.056 Y144.191 E-1.5
;WIPE_END
G1 X102.256 Y190.433 F9000
G1 E5 F2400
;WIDTH:0.600006
G1 F1200
G1 X102.256 Y141.033 E2.2883
G1 E-3.5 F3600
;WIPE_START
G1 F7200
G1 X102.256 Y144.191 E-1.5
;WIPE_END
G1 X103.456 Y190.433 F9000
G1 E5 F2400
;WIDTH:0.599998
G1 F1200
G1 X103.456 Y141.033 E2.28827
G1 E-3.5 F3600
;WIPE_START
G1 F7200
G1 X103.456 Y144.191 E-1.5
;WIPE_END
G1 X104.656 Y190.433 F9000
G1 E5 F2400
G1 F1200
G1 X104.656 Y141.033 E2.28827
G1 E-3.5 F3600
;WIPE_START
G1 F7200
G1 X104.656 Y144.191 E-1.5
;WIPE_END
G1 X105.856 Y190.433 F9000
G1 E5 F2400
;WIDTH:0.600006
G1 F1200
G1 X105.856 Y141.033 E2.2883
G1 E-3.5 F3600
;WIPE_START
G1 F7200
G1 X105.856 Y144.191 E-1.5
;WIPE_END
G1 X107.056 Y190.433 F9000
G1 E5 F2400
;WIDTH:0.599998
G1 F1200
G1 X107.056 Y141.033 E2.28827
G1 E-3.5 F3600
;WIPE_START
G1 F7200
G1 X107.056 Y144.191 E-1.5
;WIPE_END
G1 X108.256 Y190.433 F9000
G1 E5 F2400
;WIDTH:0.600006
G1 F1200
G1 X108.256 Y141.033 E2.2883
G1 E-3.5 F3600
;WIPE_START
G1 F7200
G1 X108.256 Y144.191 E-1.5
;WIPE_END
G1 X109.456 Y190.433 F9000
G1 E5 F2400
;WIDTH:0.599998
G1 F1200
G1 X109.456 Y141.033 E2.28827
G1 E-3.5 F3600
;WIPE_START
G1 F7200
G1 X109.456 Y144.191 E-1.5
;WIPE_END
G1 X110.656 Y190.433 F9000
G1 E5 F2400
G1 F1200
G1 X110.656 Y141.033 E2.28827
G1 E-3.5 F3600
;WIPE_START
G1 F7200
G1 X110.656 Y144.191 E-1.5
;WIPE_END
G1 X111.856 Y190.433 F9000
G1 E5 F2400
;WIDTH:0.6
G1 F1200
G1 X111.856 Y141.033 E2.28828
G1 E-3.5 F3600
;WIPE_START
G1 F7200
G1 X111.856 Y144.191 E-1.5
;WIPE_END
G1 X113.056 Y190.433 F9000
G1 E5 F2400
G1 F1200
G1 X113.056 Y141.033 E2.28828
G1 E-3.5 F3600
;WIPE_START
G1 F7200
G1 X113.056 Y144.191 E-1.5
;WIPE_END
G1 X114.256 Y190.433 F9000
G1 E5 F2400
G1 F1200
G1 X114.256 Y141.033 E2.28828
G1 E-3.5 F3600
;WIPE_START
G1 F7200
G1 X114.256 Y144.191 E-1.5
;WIPE_END
G1 X115.456 Y190.433 F9000
G1 E5 F2400
;WIDTH:0.599998
G1 F1200
G1 X115.456 Y141.033 E2.28827
G1 E-3.5 F3600
;WIPE_START
G1 F7200
G1 X115.456 Y144.191 E-1.5
;WIPE_END
G1 X116.656 Y190.433 F9000
G1 E5 F2400
G1 F1200
G1 X116.656 Y141.033 E2.28827
G1 E-3.5 F3600
;WIPE_START
G1 F7200
G1 X116.656 Y144.191 E-1.5
;WIPE_END
G1 X117.856 Y190.433 F9000
G1 E5 F2400
;WIDTH:0.6
G1 F1200
G1 X117.856 Y141.033 E2.28828
G1 E-3.5 F3600
;WIPE_START
G1 F7200
G1 X117.856 Y144.191 E-1.5
;WIPE_END
G1 X119.056 Y190.433 F9000
G1 E5 F2400
;WIDTH:0.599998
G1 F1200
G1 X119.056 Y141.033 E2.28827
G1 E-3.5 F3600
;WIPE_START
G1 F7200
G1 X119.056 Y144.191 E-1.5
;WIPE_END
G1 X120.256 Y190.433 F9000
G1 E5 F2400
;WIDTH:0.600006
G1 F1200
G1 X120.256 Y141.033 E2.2883
G1 E-3.5 F3600
;WIPE_START
G1 F7200
G1 X120.256 Y144.191 E-1.5
;WIPE_END
G1 X121.456 Y190.433 F9000
G1 E5 F2400
;WIDTH:0.599998
G1 F1200
G1 X121.456 Y141.033 E2.28827
G1 E-3.5 F3600
;WIPE_START
G1 F7200
G1 X121.456 Y144.191 E-1.5
;WIPE_END
G1 X122.656 Y190.433 F9000
G1 E5 F2400
G1 F1200
G1 X122.656 Y141.033 E2.28827
G1 E-3.5 F3600
;WIPE_START
G1 F7200
G1 X122.656 Y144.191 E-1.5
;WIPE_END
G1 X123.856 Y190.433 F9000
G1 E5 F2400
;WIDTH:0.600006
G1 F1200
G1 X123.856 Y141.033 E2.2883
G1 E-3.5 F3600
;WIPE_START
G1 F7200
G1 X123.856 Y144.191 E-1.5
;WIPE_END
G1 X125.056 Y190.433 F9000
G1 E5 F2400
;WIDTH:0.599998
G1 F1200
G1 X125.056 Y141.033 E2.28827
G1 E-3.5 F3600
;WIPE_START
G1 F7200
G1 X125.056 Y144.191 E-1.5
;WIPE_END
G1 X126.256 Y190.433 F9000
G1 E5 F2400
;WIDTH:0.600006
G1 F1200
G1 X126.256 Y141.033 E2.2883
G1 E-3.5 F3600
;WIPE_START
G1 F7200
G1 X126.256 Y144.191 E-1.5
;WIPE_END
G1 X127.456 Y190.433 F9000
G1 E5 F2400
;WIDTH:0.599998
G1 F1200
G1 X127.456 Y141.033 E2.28827
G1 E-3.5 F3600
;WIPE_START
G1 F7200
G1 X127.456 Y144.191 E-1.5
;WIPE_END
G1 X128.656 Y190.433 F9000
G1 E5 F2400
;WIDTH:0.6
G1 F1200
G1 X128.656 Y141.033 E2.28828
G1 E-3.5 F3600
;WIPE_START
G1 F7200
G1 X128.656 Y144.191 E-1.5
;WIPE_END
G1 X129.856 Y190.433 F9000
G1 E5 F2400
;WIDTH:0.599998
G1 F1200
G1 X129.856 Y141.033 E2.28827
G1 E-3.5 F3600
;WIPE_START
G1 F7200
G1 X129.856 Y144.191 E-1.5
;WIPE_END
G1 X131.056 Y190.433 F9000
G1 E5 F2400
G1 F1200
G1 X131.056 Y141.033 E2.28827
G1 E-3.5 F3600
;WIPE_START
G1 F7200
G1 X131.056 Y144.191 E-1.5
;WIPE_END
G1 X132.256 Y190.433 F9000
G1 E5 F2400
G1 F1200
G1 X132.256 Y141.033 E2.28827
G1 E-3.5 F3600
;WIPE_START
G1 F7200
